assets/icons/roll_of_honour_colored.svg

<svg fill="none" height="24" viewBox="0 0 24 24" width="24" xmlns="http://www.w3.org/2000/svg"><path d="m14.5648 21.9464c.8007.0523 1.6022.095 2.4026.1504.4062.0281.5283-.0302.7111-.4002.3485-.7057.7001-1.4099 1.0406-2.1197.0629-.1372.1708-.2471.3047-.3105.7031-.3594 1.3981-.7311 2.1017-1.0867.2578-.1301.3595-.3167.3403-.6104-.0539-.8228-.0905-1.6467-.1374-2.47-.0109-.1152.0175-.2306.0802-.3267.4746-.7332.9443-1.4694 1.4161-2.205.0058-.0089.0234-.0101.0349-.015v-.4384c-.3576-.4755-.6455-.9994-.9771-1.4935-.0361-.0537-.0619-.1168-.1048-.1638-.4038-.4427-.4788-.96349-.4106-1.54884.0703-.60775.0785-1.22321.1172-1.83482.0173-.27317-.0938-.45287-.3331-.57499-.7265-.37169-1.4496-.7547-2.1764-1.12831-.0953-.04605-.1721-.12462-.2175-.22234-.3607-.74024-.7265-1.47783-1.0917-2.21614-.1563-.31556-.2843-.38229-.6281-.36133-.8222.0501-1.6451.0925-2.4673.14453-.0977.00626-.161-.04529-.2301-.09226-.6392-.43247-1.2778-.86574-1.9156-1.29982-.1045-.07082-.2093-.14092-.3138-.21125h-.2559c.0091.08768-.0661.10382-.1153.13778-.6851.47166-1.3779.93102-2.06491 1.40075-.12352.08455-.24727.1137-.39844.11057-.66727-.01373-1.33125-.09636-1.99875-.09852-.09375 0-.18352-.02048-.27516-.03277-.34711-.04576-.53343.05083-.69328.37458-.32508.6581-.65109 1.31572-.96094 1.98152-.1132.2445-.26929.40951-.50859.52658-.6293.30689-1.24828.6357-1.87101.95656-.40805.21029-.49219.37578-.42047.84309.04875.31845.03679.64124.05367.96066.02344.45093.06703.90211.06422 1.35522 0 .14284-.05368.25293-.12586.36301-.42446.64844-.81821 1.31854-1.26 1.95454-.1875.2681-.18071.501-.00633.7614.38297.5716.72141 1.1755 1.12242 1.7325.25195.35.3007.7156.24891 1.1141-.04688.363-.03727.7282-.06422 1.0917-.02344.3042-.03586.6113-.05344.917-.0143.2544.07992.4276.30094.5519.64242.3613 1.30265.6872 1.96055 1.0168.26226.1312.44531.3032.57234.5781.29391.6407.60937 1.2711.92086 1.903.19734.4008.33773.4728.76476.4126.28852-.0407.58079-.0335.87118-.053.4739-.0323.94922-.052 1.42382-.0814.09797-.0063.18165.0284.25993.0817.7231.4921 1.452.9748 2.1738 1.4694.0394.0269.0917.0481.079.1149h.256c.7534-.5118 1.5069-1.0247 2.2605-1.5386.0581-.0388.1137-.0756.1938-.0706zm-2.4487.4866c-.1052.0723-.1744.0742-.2813 0-.6286-.4352-1.2656-.859-1.89514-1.2921-.13334-.0971-.29514-.144-.4582-.1329-.75164.0467-1.50375.0831-2.25492.1353-.15914.0111-.23438-.0387-.30469-.1847-.32273-.6781-.66234-1.3475-.98789-2.0235-.07831-.1716-.2123-.3099-.37898-.3912-.62789-.3165-1.24735-.6504-1.87828-.9609-.21094-.1035-.34735-.2148-.26766-.4205.04078-.7097.06797-1.3663.1207-2.0211.02578-.3203-.03023-.5925-.21281-.8616-.40125-.5911-.77344-1.2023-1.16672-1.8001-.07031-.1082-.07289-.1805 0-.2891.3886-.5914.75539-1.1982 1.15617-1.7804.19899-.2891.24868-.58075.22125-.92281-.05484-.6911-.0764-1.38485-.12-2.07667-.00843-.13803.03633-.20066.15586-.26136.67196-.33989 1.33594-.69423 2.00742-1.03725.15384-.07573.27788-.20322.35157-.36133.33468-.68917.67968-1.37305 1.00781-2.06535.06398-.13466.13594-.17127.27375-.16236.75844.04938 1.51781.08744 2.27625.13538.17953.01132.33117-.04119.47789-.14188.62512-.4283 1.25462-.84864 1.87802-1.28031.1065-.07371.1754-.07226.2801 0 .6218.43046 1.2516.85105 1.8762 1.28079.1474.10117.2981.1532.4774.14188.7514-.04818 1.5038-.08455 2.2549-.13514.1566-.0106.2344.03373.3068.18476.3254.68556.6699 1.36149 1.0011 2.04416.0735.1582.1976.28572.3515.36132.6701.34351 1.336.69857 2.0077 1.03701.1312.06601.1687.13586.1596.28184-.049.77228-.0846 1.54528-.1296 2.3178-.0123.18931.0393.37712.1462.53182.4153.6343.8203 1.2767 1.2345 1.9105.0703.1079.0686.1804 0 .2869-.4186.6407-.8271 1.2885-1.245 1.9297-.0988.1426-.1468.3158-.136.4905.0446.758.0757 1.5175.1299 2.2737.0143.1982-.0415.2929-.2133.3784-.6548.3257-1.3001.6718-1.9514 1.005-.154.0754-.2782.203-.3516.3613-.3342.6889-.6797 1.3716-1.0101 2.0627-.0645.1352-.1362.1761-.2759.167-.7584-.0482-1.5178-.087-2.2762-.1352-.1798-.0113-.331.0417-.4779.1424-.6267.4256-1.2563.8464-1.879 1.2776z" fill="#969696"/><path d="m18.769 12.3156c-.0253-3.86622-3.0736-6.97822-6.8032-6.96497-3.72072.01325-6.78611 3.08743-6.78611 6.98057 0 3.9045 3.07031 6.9879 6.80251 6.9864 3.7631-.0142 6.8119-3.1597 6.7868-7.002zm-6.7924 6.0672c-3.24379 0-5.87957-2.7076-5.88285-6.0427-.00422-3.32922 2.63578-6.05171 5.87275-6.05604 3.244-.00434 5.9062 2.72851 5.899 6.05534-.0073 3.3269-2.6517 6.0441-5.8889 6.0434z" fill="#5c5b5b"/><path d="m14.9247 10.1717c-.1789-.0932-.3966-.0378-.5935.1532-1.0125.9821-2.0268 1.9601-3.0328 2.9509-.1462.1445-.2135.1221-.3403-.0166-.4423-.4844-.8986-.9554-1.35067-1.4304-.04385-.0474-.09285-.0895-.14602-.1255-.14343-.0944-.29601-.1019-.4439-.0147s-.24141.2221-.23649.4237c-.00586.1549.0886.2746.19313.3854.5739.608 1.14915 1.2146 1.72565 1.8197.2914.3054.5206.3132.8218.0219.8343-.8045 1.6667-1.6106 2.497-2.4182.3358-.3255.6764-.6461 1.0045-.9812.2496-.2568.1962-.6147-.0984-.7682z" fill="#6e6e6e"/></svg>

<svg width="24" height="24" viewBox="0 0 24 24" fill="none" xmlns="http://www.w3.org/2000/svg">
<path d="M14.5648 21.9464C15.3655 21.9987 16.167 22.0414 16.9674 22.0968C17.3736 22.1249 17.4957 22.0666 17.6785 21.6966C18.027 20.9909 18.3786 20.2867 18.7191 19.5769C18.782 19.4397 18.8899 19.3298 19.0238 19.2664C19.7269 18.907 20.4219 18.5353 21.1255 18.1797C21.3833 18.0496 21.485 17.863 21.4658 17.5693C21.4119 16.7465 21.3753 15.9226 21.3284 15.0993C21.3175 14.9841 21.3459 14.8687 21.4086 14.7726C21.8832 14.0394 22.3529 13.3032 22.8247 12.5676C22.8305 12.5587 22.8481 12.5575 22.8596 12.5526V12.1142C22.502 11.6387 22.2141 11.1148 21.8825 10.6207C21.8464 10.567 21.8206 10.5039 21.7777 10.4569C21.3739 10.0142 21.2989 9.49341 21.3671 8.90806C21.4374 8.30031 21.4456 7.68485 21.4843 7.07324C21.5016 6.80007 21.3905 6.62037 21.1512 6.49825C20.4247 6.12656 19.7016 5.74355 18.9748 5.36994C18.8795 5.32389 18.8027 5.24532 18.7573 5.1476C18.3966 4.40736 18.0308 3.66977 17.6656 2.93146C17.5093 2.6159 17.3813 2.54917 17.0375 2.57013C16.2153 2.62023 15.3924 2.66263 14.5702 2.71466C14.4725 2.72092 14.4092 2.66937 14.3401 2.6224C13.7009 2.18993 13.0623 1.75666 12.4245 1.32258C12.32 1.25176 12.2152 1.18166 12.1107 1.11133H11.8548C11.8639 1.19901 11.7887 1.21515 11.7395 1.24911C11.0544 1.72077 10.3616 2.18013 9.67459 2.64986C9.55107 2.73441 9.42732 2.76356 9.27615 2.76043C8.60888 2.7467 7.9449 2.66407 7.2774 2.66191C7.18365 2.66191 7.09388 2.64143 7.00224 2.62914C6.65513 2.58338 6.46881 2.67997 6.30896 3.00372C5.98388 3.66182 5.65787 4.31944 5.34802 4.98524C5.23482 5.22974 5.07873 5.39475 4.83943 5.51182C4.21013 5.81871 3.59115 6.14752 2.96842 6.46838C2.56037 6.67867 2.47623 6.84416 2.54795 7.31147C2.5967 7.62992 2.58474 7.95271 2.60162 8.27213C2.62506 8.72306 2.66865 9.17424 2.66584 9.62735C2.66584 9.77019 2.61216 9.88028 2.53998 9.99036C2.11552 10.6388 1.72177 11.3089 1.27998 11.9449C1.09248 12.213 1.09927 12.4459 1.27365 12.7063C1.65662 13.2779 1.99506 13.8818 2.39607 14.4388C2.64802 14.7888 2.69677 15.1544 2.64498 15.5529C2.5981 15.9159 2.60771 16.2811 2.58076 16.6446C2.55732 16.9488 2.5449 17.2559 2.52732 17.5616C2.51302 17.816 2.60724 17.9892 2.82826 18.1135C3.47068 18.4748 4.13091 18.8007 4.78881 19.1303C5.05107 19.2615 5.23412 19.4335 5.36115 19.7084C5.65506 20.3491 5.97052 20.9795 6.28201 21.6114C6.47935 22.0122 6.61974 22.0842 7.04677 22.024C7.33529 21.9833 7.62756 21.9905 7.91795 21.971C8.39185 21.9387 8.86717 21.919 9.34177 21.8896C9.43974 21.8833 9.52342 21.918 9.6017 21.9713C10.3248 22.4634 11.0537 22.9461 11.7755 23.4407C11.8149 23.4676 11.8672 23.4888 11.8545 23.5556H12.1105C12.8639 23.0438 13.6174 22.5309 14.371 22.017C14.4291 21.9782 14.4847 21.9414 14.5648 21.9464ZM12.1161 22.433C12.0109 22.5053 11.9417 22.5072 11.8348 22.433C11.2062 21.9978 10.5692 21.574 9.93966 21.1409C9.80632 21.0438 9.64452 20.9969 9.48146 21.008C8.72982 21.0547 7.97771 21.0911 7.22654 21.1433C7.0674 21.1544 6.99216 21.1046 6.92185 20.9586C6.59912 20.2805 6.25951 19.6111 5.93396 18.9351C5.85565 18.7635 5.72166 18.6252 5.55498 18.5439C4.92709 18.2274 4.30763 17.8935 3.6767 17.583C3.46576 17.4795 3.32935 17.3682 3.40904 17.1625C3.44982 16.4528 3.47701 15.7962 3.52974 15.1414C3.55552 14.8211 3.49951 14.5489 3.31693 14.2798C2.91568 13.6887 2.54349 13.0775 2.15021 12.4797C2.0799 12.3715 2.07732 12.2992 2.15021 12.1906C2.53881 11.5992 2.9056 10.9924 3.30638 10.4102C3.50537 10.1211 3.55506 9.82945 3.52763 9.48739C3.47279 8.79629 3.45123 8.10254 3.40763 7.41072C3.3992 7.27269 3.44396 7.21006 3.56349 7.14936C4.23545 6.80947 4.89943 6.45513 5.57091 6.11211C5.72475 6.03638 5.84879 5.90889 5.92248 5.75078C6.25716 5.06161 6.60216 4.37773 6.93029 3.68543C6.99427 3.55077 7.06623 3.51416 7.20404 3.52307C7.96248 3.57245 8.72185 3.61051 9.48029 3.65845C9.65982 3.66977 9.81146 3.61726 9.95818 3.51657C10.5833 3.08827 11.2128 2.66793 11.8362 2.23626C11.9427 2.16255 12.0116 2.164 12.1163 2.23626C12.7381 2.66672 13.3679 3.08731 13.9925 3.51705C14.1399 3.61822 14.2906 3.67025 14.4699 3.65893C15.2213 3.61075 15.9737 3.57438 16.7248 3.52379C16.8814 3.51319 16.9592 3.55752 17.0316 3.70855C17.357 4.39411 17.7015 5.07004 18.0327 5.75271C18.1062 5.91091 18.2303 6.03843 18.3842 6.11403C19.0543 6.45754 19.7202 6.8126 20.3919 7.15104C20.5231 7.21705 20.5606 7.2869 20.5515 7.43288C20.5025 8.20516 20.4669 8.97816 20.4219 9.75068C20.4096 9.93999 20.4612 10.1278 20.5681 10.2825C20.9834 10.9168 21.3884 11.5592 21.8026 12.193C21.8729 12.3009 21.8712 12.3734 21.8026 12.4799C21.384 13.1206 20.9755 13.7684 20.5576 14.4096C20.4588 14.5522 20.4108 14.7254 20.4216 14.9001C20.4662 15.6581 20.4973 16.4176 20.5515 17.1738C20.5658 17.372 20.51 17.4667 20.3382 17.5522C19.6834 17.8779 19.0381 18.224 18.3868 18.5572C18.2328 18.6326 18.1086 18.7602 18.0352 18.9185C17.701 19.6074 17.3555 20.2901 17.0251 20.9812C16.9606 21.1164 16.8889 21.1573 16.7492 21.1482C15.9908 21.1 15.2314 21.0612 14.473 21.013C14.2932 21.0017 14.142 21.0547 13.9951 21.1554C13.3684 21.581 12.7388 22.0018 12.1161 22.433Z" fill="#969696"/>
<path d="M18.769 12.3156C18.7437 8.44938 15.6954 5.33738 11.9658 5.35063C8.24508 5.36388 5.17969 8.43806 5.17969 12.3312C5.17969 16.2357 8.25 19.3191 11.9822 19.3176C15.7453 19.3034 18.7941 16.1579 18.769 12.3156ZM11.9766 18.3828C8.73281 18.3828 6.09703 15.6752 6.09375 12.3401C6.08953 9.01088 8.72953 6.28839 11.9665 6.28406C15.2105 6.27972 17.8727 9.01257 17.8655 12.3394C17.8582 15.6663 15.2138 18.3835 11.9766 18.3828Z" fill="#5C5B5B"/>
<path d="M14.9247 10.1717C14.7458 10.0785 14.5281 10.1339 14.3312 10.3249C13.3187 11.307 12.3044 12.285 11.2984 13.2758C11.1522 13.4203 11.0849 13.3979 10.9581 13.2592C10.5158 12.7748 10.0595 12.3038 9.60743 11.8288C9.56358 11.7814 9.51458 11.7393 9.46141 11.7033C9.31798 11.6089 9.1654 11.6014 9.01751 11.6886C8.86962 11.7758 8.7761 11.9107 8.78102 12.1123C8.77516 12.2672 8.86962 12.3869 8.97415 12.4977C9.54805 13.1057 10.1233 13.7123 10.6998 14.3174C10.9912 14.6228 11.2204 14.6306 11.5216 14.3393C12.3559 13.5348 13.1883 12.7287 14.0186 11.9211C14.3544 11.5956 14.695 11.275 15.0231 10.9399C15.2727 10.6831 15.2193 10.3252 14.9247 10.1717Z" fill="#6E6E6E"/>
</svg>
